X: 23561
T: Light And Airy
R: jig
M: 6/8
K: Dmajor
|:AFD D3|AFD FAd|AFD DEF|E2F GFE|
AFD DFA|dcB AFA|GBe FAd|E2F GFE:|
|:d3 dAF|ded dAF|d3 dAF|E2F GFE|
dfd cec|BdB AFD|GBG FAF|E2F GFE:|

